Xcode.app/Contents/Applications/RealityComposer.app/Contents/Frameworks/CoreRE.framework/Versions/A/Resources/lut3d_cc_v002.cube
TITLE "Generated by Foundry::LUT"
LUT_3D_SIZE 5
DOMAIN_MIN 0.000000 0.000000 0.000000
DOMAIN_MAX 0.903226 0.903226 0.903226
0.000000 0.000000 0.000000
0.034126 0.001977 0.002600
0.173636 0.007069 0.007069
0.365878 0.014895 0.014895
0.620873 0.025276 0.025276
0.018411 0.091890 0.018411
0.113894 0.113894 0.029697
0.279270 0.138031 0.043384
0.508948 0.164264 0.059394
0.799551 0.192562 0.077663
0.065832 0.328572 0.065832
0.203448 0.366951 0.084915
0.407253 0.407253 0.106187
0.673211 0.449462 0.129605
1.000180 0.493874 0.154982
0.138719 0.692354 0.138719
0.318305 0.748000 0.164284
0.580095 0.814458 0.188521
0.942782 0.892001 0.210512
1.426553 0.979943 0.229777
0.264552 1.233087 0.217906
0.541284 1.342616 0.236120
0.935419 1.462142 0.251558
1.458443 1.588928 0.264736
2.114469 1.719523 0.276718
0.000108 0.000271 0.063498
0.046924 0.003382 0.061504
0.183244 0.009428 0.071548
0.379320 0.018137 0.091319
0.637945 0.029356 0.113265
0.021965 0.099114 0.099114
0.121846 0.121846 0.121846
0.291169 0.146698 0.146698
0.524552 0.173636 0.173636
0.818695 0.202628 0.202628
0.072059 0.341377 0.184027
0.213765 0.380411 0.213765
0.421362 0.421362 0.245521
0.690920 0.464213 0.279270
1.026657 0.510324 0.313711
0.147407 0.710291 0.292135
0.333858 0.769284 0.325401
0.606825 0.839550 0.353996
0.984935 0.920723 0.377466
1.487561 1.011947 0.395821
0.283095 1.268987 0.384772
0.572161 1.382172 0.401358
0.980853 1.504503 0.413725
1.518926 1.633005 0.423274
2.187914 1.763976 0.432117
0.000520 0.000969 0.206534
0.058488 0.005122 0.168303
0.193087 0.012094 0.193087
0.392982 0.021669 0.223458
0.655229 0.033714 0.255838
0.025803 0.106587 0.235096
0.130043 0.130043 0.268206
0.303295 0.155606 0.303295
0.540371 0.183244 0.340339
0.838045 0.212927 0.379320
0.078541 0.354405 0.354405
0.224315 0.394091 0.394091
0.435689 0.435689 0.435689
0.708839 0.479181 0.479181
1.057034 0.527755 0.519748
0.156658 0.729040 0.494978
0.350909 0.791870 0.532578
0.635719 0.865901 0.561877
1.029685 0.950606 0.583022
1.551182 1.044952 0.596785
0.302802 1.306209 0.588862
0.604434 1.422787 0.600250
1.027543 1.547581 0.606458
1.579973 1.677373 0.610029
2.260506 1.808206 0.614366
0.001454 0.002042 0.380886
0.065663 0.007185 0.328220
0.203165 0.015058 0.366581
0.406865 0.025484 0.406865
0.672722 0.038344 0.449056
0.029921 0.114307 0.422111
0.138481 0.138481 0.464996
0.315645 0.164752 0.509766
0.556403 0.193087 0.556403
0.857602 0.223458 0.604896
0.085277 0.367655 0.573965
0.235096 0.407991 0.623134
0.450234 0.450234 0.674139
0.728258 0.494717 0.726192
1.091266 0.546177 0.769008
0.166773 0.749089 0.743335
0.369495 0.815749 0.781596
0.666753 0.893485 0.807732
1.076913 0.981604 0.822756
1.617172 1.078890 0.828466
0.323669 1.344672 0.825809
0.638026 1.464354 0.828722
1.075305 1.591241 0.826173
1.641261 1.721868 0.822089
2.331757 1.852016 0.821411
0.003038 0.003466 0.559982
0.071883 0.009561 0.541211
0.213476 0.018316 0.589108
0.420967 0.029579 0.638851
0.690426 0.043245 0.690426
0.034314 0.122272 0.657546
0.147162 0.147162 0.709789
0.328220 0.174136 0.763848
0.572649 0.203165 0.819709
0.877364 0.234220 0.877364
0.092264 0.381126 0.840637
0.246107 0.422111 0.898946
0.464996 0.464996 0.959032
0.750615 0.511219 1.016520
1.129290 0.565596 1.057622
0.177811 0.770442 1.033580
0.389644 0.840907 1.068484
0.699889 0.922269 1.087470
1.126486 1.013662 1.092673
1.685265 1.113682 1.087166
0.345681 1.384287 1.091704
0.672844 1.506757 1.083237
1.123935 1.635338 1.069895
1.702445 1.766315 1.057230
2.401149 1.895201 1.051954
