Xcode.app/Contents/Applications/RealityComposer.app/Contents/Frameworks/CoreRE.framework/Versions/A/Resources/lut3d_cc_v002.cube
TITLE "Generated by Foundry::LUT"
LUT_3D_SIZE 32
0.000000 0.000000 0.000000
0.000476 0.000055 0.000093
0.001851 0.000198 0.000327
0.004374 0.000416 0.000669
0.008444 0.000707 0.001092
0.014500 0.001065 0.001569
0.022953 0.001489 0.002077
0.034126 0.001977 0.002600
0.048197 0.002527 0.003126
0.065143 0.003138 0.003653
0.084695 0.003808 0.004190
0.106281 0.004537 0.004761
0.128984 0.005324 0.005402
0.151493 0.006168 0.006170
0.173636 0.007069 0.007069
0.197114 0.008025 0.008025
0.221943 0.009035 0.009035
0.248108 0.010100 0.010100
0.275596 0.011219 0.011219
0.304394 0.012392 0.012392
0.334492 0.013617 0.013617
0.365878 0.014895 0.014895
0.398543 0.016225 0.016225
0.432476 0.017606 0.017606
0.467669 0.019039 0.019039
0.504114 0.020522 0.020522
0.541801 0.022057 0.022057
0.580723 0.023641 0.023641
0.620873 0.025276 0.025276
0.662243 0.026960 0.026960
0.704827 0.028693 0.028693
0.748617 0.030476 0.030476
0.000231 0.002569 0.000816
0.001625 0.003184 0.001261
0.004534 0.003859 0.001752
0.009321 0.004593 0.002268
0.016322 0.005384 0.002793
0.025771 0.006232 0.003319
0.037743 0.007136 0.003848
0.052101 0.008096 0.004394
0.068445 0.009111 0.004985
0.086060 0.010180 0.005666
0.103941 0.011303 0.006492
0.122694 0.012479 0.007413
0.142854 0.013708 0.008389
0.164404 0.014989 0.009419
0.187324 0.016323 0.010504
0.211602 0.017708 0.011643
0.237220 0.019145 0.012835
0.264167 0.020632 0.014079
0.292429 0.022170 0.015376
0.321996 0.023758 0.016725
0.352855 0.025396 0.018125
0.384997 0.027084 0.019577
0.418411 0.028821 0.021079
0.453089 0.030607 0.022632
0.489022 0.032442 0.024235
0.526200 0.034326 0.025887
0.564617 0.036258 0.027590
0.604265 0.038238 0.029341
0.645135 0.040266 0.031142
0.687222 0.042342 0.032991
0.730518 0.044465 0.034889
0.775018 0.046636 0.036836
0.001257 0.009186 0.002460
0.004307 0.010259 0.002986
0.009423 0.011386 0.003512
0.016758 0.012566 0.004045
0.026302 0.013799 0.004604
0.037817 0.015084 0.005222
0.050790 0.016422 0.005949
0.064661 0.017811 0.006823
0.079932 0.019251 0.007764
0.096664 0.020742 0.008760
0.114834 0.022283 0.009811
0.134420 0.023875 0.010916
0.155402 0.025517 0.012074
0.177762 0.027208 0.013285
0.201485 0.028949 0.014549
0.226556 0.030739 0.015865
0.252960 0.032577 0.017232
0.280684 0.034464 0.018652
0.309717 0.036400 0.020122
0.340048 0.038384 0.021642
0.371665 0.040415 0.023214
0.404559 0.042494 0.024835
0.438720 0.044621 0.026506
0.474139 0.046795 0.028226
0.510808 0.049016 0.029996
0.548718 0.051284 0.031814
0.587862 0.053598 0.033681
0.628232 0.055959 0.035597
0.669821 0.058367 0.037561
0.712622 0.060820 0.039573
0.756629 0.063320 0.041632
0.801835 0.065865 0.043740
0.003532 0.019357 0.004245
0.008460 0.020852 0.004821
0.015389 0.022397 0.005472
0.023992 0.023992 0.006256
0.034042 0.025638 0.007162
0.045668 0.027333 0.008123
0.058830 0.029077 0.009139
0.073493 0.030870 0.010210
0.089629 0.032712 0.011334
0.107213 0.034603 0.012512
0.126220 0.036542 0.013742
0.146632 0.038529 0.015025
0.168429 0.040564 0.016360
0.191596 0.042647 0.017747
0.216115 0.044777 0.019185
0.241974 0.046954 0.020673
0.269159 0.049179 0.022213
0.297657 0.051450 0.023802
0.327457 0.053768 0.025442
0.358547 0.056132 0.027131
0.390919 0.058543 0.028869
0.424562 0.061000 0.030657
0.459466 0.063503 0.032493
0.495624 0.066051 0.034378
0.533026 0.068645 0.036312
0.571665 0.071285 0.038293
0.611533 0.073970 0.040322
0.652623 0.076701 0.042399
0.694928 0.079476 0.044524
0.738441 0.082296 0.046696
0.783156 0.085161 0.048915
0.829067 0.088071 0.051180
0.006581 0.032848 0.006581
0.012599 0.034742 0.007508
0.020339 0.036685 0.008489
0.029729 0.038675 0.009525
0.040714 0.040714 0.010616
0.053250 0.042800 0.011760
0.067302 0.044933 0.012957
0.082837 0.047114 0.014207
0.099830 0.049342 0.015509
0.118257 0.051616 0.016862
0.138095 0.053938 0.018268
0.159327 0.056305 0.019724
0.181933 0.058719 0.021232
0.205900 0.061180 0.022789
0.231211 0.063686 0.024397
0.257854 0.066238 0.026055
0.285815 0.068835 0.027762
0.315082 0.071478 0.029519
0.345645 0.074167 0.031324
0.377493 0.076900 0.033179
0.410616 0.079679 0.035081
0.445004 0.082502 0.037032
0.480649 0.085371 0.039031
0.517542 0.088283 0.041078
0.555674 0.091241 0.043173
0.595040 0.094243 0.045315
0.635629 0.097289 0.047504
0.677437 0.100379 0.049740
0.720456 0.103513 0.052023
0.764679 0.106691 0.054352
0.810100 0.109913 0.056728
0.856714 0.113178 0.059150
0.009919 0.049505 0.009919
0.016963 0.051783 0.011029
0.025683 0.054108 0.012192
0.036020 0.056479 0.013409
0.047925 0.058896 0.014678
0.061360 0.061360 0.015999
0.076290 0.063869 0.017372
0.092689 0.066424 0.018796
0.110530 0.069025 0.020271
0.129792 0.071672 0.021797
0.150455 0.074363 0.023373
0.172500 0.077100 0.024999
0.195911 0.079882 0.026675
0.220673 0.082709 0.028400
0.246771 0.085580 0.030175
0.274193 0.088496 0.031998
0.302926 0.091457 0.033870
0.332959 0.094462 0.035791
0.364281 0.097511 0.037760
0.396883 0.100604 0.039776
0.430753 0.103742 0.041841
0.465884 0.106923 0.043952
0.502266 0.110148 0.046112
0.539891 0.113417 0.048318
0.578752 0.116729 0.050571
0.618841 0.120084 0.052871
0.660150 0.123483 0.055218
0.702673 0.126925 0.057611
0.746403 0.130410 0.060050
0.791334 0.133939 0.062535
0.837460 0.137510 0.065066
0.884773 0.141123 0.067643
0.013868 0.069215 0.013868
0.021909 0.071865 0.015156
0.031590 0.074560 0.016496
0.042857 0.077300 0.017888
0.055669 0.080085 0.019331
0.069990 0.082915 0.020825
0.085790 0.085790 0.022369
0.103043 0.088709 0.023963
0.121725 0.091673 0.025608
0.141815 0.094681 0.027302
0.163296 0.097734 0.029045
0.186149 0.100830 0.030838
0.210358 0.103971 0.032679
0.235910 0.107155 0.034569
0.262791 0.110383 0.036507
0.290988 0.113655 0.038493
0.320490 0.116970 0.040527
0.351285 0.120329 0.042609
0.383363 0.123731 0.044739
0.416714 0.127176 0.046915
0.451329 0.130665 0.049139
0.487199 0.134196 0.051409
0.524316 0.137770 0.053726
0.562671 0.141387 0.056090
0.602257 0.145047 0.058499
0.643067 0.148749 0.060955
0.685093 0.152494 0.063457
0.728329 0.156281 0.066005
0.772769 0.160110 0.068599
0.818405 0.163982 0.071238
0.865232 0.167896 0.073922
0.913245 0.171852 0.076651
0.018411 0.091890 0.018411
0.027427 0.094901 0.019872
0.038049 0.097957 0.021385
0.050232 0.101056 0.022948
0.063938 0.104200 0.024560
0.079135 0.107388 0.026223
0.095795 0.110619 0.027935
0.113894 0.113894 0.029697
0.133409 0.117212 0.031507
0.154322 0.120574 0.033366
0.176614 0.123979 0.035274
0.200270 0.127428 0.037230
0.225273 0.130919 0.039233
0.251611 0.134453 0.041285
0.279270 0.138031 0.043384
0.308238 0.141651 0.045531
0.338504 0.145314 0.047725
0.370057 0.149019 0.049965
0.402887 0.152767 0.052253
0.436985 0.156557 0.054587
0.472342 0.160389 0.056968
0.508948 0.164264 0.059394
0.546797 0.168181 0.061867
0.585879 0.172140 0.064386
0.626188 0.176141 0.066951
0.667717 0.180184 0.069561
0.710458 0.184268 0.072216
0.754404 0.188395 0.074917
0.799551 0.192562 0.077663
0.845891 0.196772 0.080454
0.893418 0.201023 0.083290
0.942127 0.205315 0.086171
0.023533 0.117455 0.023533
0.033503 0.120820 0.025164
0.045051 0.124228 0.026845
0.058137 0.127679 0.028575
0.072726 0.131174 0.030355
0.088790 0.134711 0.032183
0.106301 0.138292 0.034060
0.125238 0.141915 0.035985
0.145581 0.145581 0.037959
0.167309 0.149289 0.039980
0.190408 0.153040 0.042049
0.214860 0.156833 0.044166
0.240652 0.160669 0.046330
0.267771 0.164547 0.048541
0.296204 0.168467 0.050799
0.325939 0.172429 0.053103
0.356966 0.176432 0.055454
0.389274 0.180478 0.057852
0.422853 0.184566 0.060296
0.457695 0.188695 0.062785
0.493790 0.192866 0.065321
0.531130 0.197079 0.067902
0.569708 0.201332 0.070529
0.609515 0.205628 0.073201
0.650544 0.209964 0.075919
0.692789 0.214342 0.078681
0.736242 0.218761 0.081489
0.780897 0.223221 0.084341
0.826748 0.227722 0.087238
0.873789 0.232265 0.090179
0.922014 0.236847 0.093165
0.971418 0.241471 0.096196
0.029222 0.145848 0.029222
0.040128 0.149559 0.031019
0.052588 0.153313 0.032865
0.066565 0.157110 0.034760
0.082027 0.160948 0.036703
0.098948 0.164829 0.038694
0.117304 0.168752 0.040733
0.137072 0.172717 0.042820
0.158234 0.176724 0.044954
0.180773 0.180773 0.047135
0.204672 0.184864 0.049363
0.229917 0.188996 0.051638
0.256493 0.193170 0.053960
0.284389 0.197385 0.056328
0.313591 0.201642 0.058742
0.344090 0.205941 0.061203
0.375874 0.210280 0.063710
0.408933 0.214661 0.066262
0.443258 0.219083 0.068860
0.478841 0.223546 0.071503
0.515671 0.228050 0.074192
0.553742 0.232595 0.076926
0.593046 0.237181 0.079705
0.633575 0.241808 0.082529
0.675323 0.246475 0.085398
0.718281 0.251183 0.088311
0.762444 0.255932 0.091269
0.807806 0.260721 0.094271
0.854360 0.265551 0.097318
0.902100 0.270421 0.100408
0.951022 0.275331 0.103543
1.001118 0.280282 0.106721
0.035467 0.177016 0.035467
0.047295 0.181068 0.037427
0.060654 0.185162 0.039436
0.075510 0.189297 0.041492
0.091836 0.193474 0.043596
0.109606 0.197693 0.045748
0.128798 0.201952 0.047946
0.149391 0.206254 0.050192
0.171367 0.210596 0.052484
0.194710 0.214980 0.054822
0.219405 0.219405 0.057208
0.245437 0.223871 0.059639
0.272793 0.228378 0.062116
0.301461 0.232926 0.064640
0.331430 0.237515 0.067209
0.362688 0.242145 0.069824
0.395226 0.246815 0.072484
0.429033 0.251526 0.075189
0.464101 0.256278 0.077940
0.500421 0.261070 0.080735
0.537984 0.265902 0.083576
0.576784 0.270775 0.086461
0.616812 0.275688 0.089390
0.658060 0.280642 0.092364
0.700523 0.285636 0.095383
0.744193 0.290669 0.098445
0.789064 0.295743 0.101552
0.835130 0.300857 0.104703
0.882384 0.306011 0.107897
0.930822 0.311205 0.111135
0.980438 0.316438 0.114417
1.031225 0.321712 0.117743
0.042258 0.210913 0.042258
0.054994 0.215300 0.044380
0.069240 0.219727 0.046548
0.084967 0.224196 0.048764
0.102148 0.228706 0.051026
0.120759 0.233257 0.053336
0.140780 0.237849 0.055691
0.162191 0.242482 0.058094
0.184976 0.247155 0.060542
0.209118 0.251869 0.063036
0.234604 0.256624 0.065576
0.261418 0.261418 0.068162
0.289550 0.266254 0.070794
0.318987 0.271130 0.073470
0.349718 0.276046 0.076192
0.381732 0.281002 0.078959
0.415020 0.285999 0.081771
0.449572 0.291036 0.084628
0.485380 0.296113 0.087529
0.522434 0.301229 0.090475
0.560728 0.306386 0.093466
0.600253 0.311583 0.096500
0.641002 0.316819 0.099579
0.682968 0.322095 0.102702
0.726143 0.327411 0.105869
0.770523 0.332767 0.109079
0.816100 0.338162 0.112334
0.862868 0.343597 0.115631
0.910821 0.349071 0.118973
0.959954 0.354585 0.122357
1.010262 0.360138 0.125785
1.061739 0.365730 0.129256
0.049588 0.247495 0.049588
0.063219 0.252212 0.051868
0.078342 0.256970 0.054194
0.094930 0.261768 0.056567
0.112957 0.266606 0.058986
0.132402 0.271485 0.061451
0.153246 0.276404 0.063962
0.175470 0.281363 0.066519
0.199057 0.286363 0.069122
0.223994 0.291402 0.071770
0.250265 0.296482 0.074463
0.277858 0.301602 0.077201
0.306761 0.306761 0.079985
0.336963 0.311961 0.082813
0.368452 0.317200 0.085686
0.401219 0.322479 0.088604
0.435254 0.327798 0.091566
0.470548 0.333157 0.094573
0.507092 0.338555 0.097624
0.544879 0.343992 0.100719
0.583900 0.349469 0.103858
0.624148 0.354986 0.107041
0.665616 0.360542 0.110267
0.708296 0.366137 0.113537
0.752183 0.371771 0.116851
0.797270 0.377445 0.120208
0.843550 0.383158 0.123609
0.891018 0.388910 0.127052
0.939668 0.394701 0.130539
0.989495 0.400530 0.134069
1.040493 0.406399 0.137641
1.092657 0.412307 0.141257
0.057448 0.286727 0.057448
0.071963 0.291769 0.059884
0.087954 0.296852 0.062366
0.105394 0.301974 0.064894
0.124260 0.307137 0.067468
0.144533 0.312339 0.070087
0.166192 0.317581 0.072752
0.189223 0.322863 0.075462
0.213608 0.328185 0.078217
0.239334 0.333546 0.081017
0.266387 0.338947 0.083861
0.294754 0.344388 0.086751
0.324425 0.349868 0.089685
0.355387 0.355387 0.092664
0.387631 0.360946 0.095686
0.421147 0.366544 0.098753
0.455926 0.372181 0.101864
0.491959 0.377858 0.105020
0.529238 0.383573 0.108218
0.567753 0.389328 0.111461
0.607499 0.395122 0.114747
0.648468 0.400955 0.118077
0.690652 0.406826 0.121450
0.734045 0.412737 0.124866
0.778640 0.418686 0.128326
0.824432 0.424675 0.131828
0.871414 0.430702 0.135374
0.919580 0.436768 0.138962
0.968925 0.442872 0.142593
1.019444 0.449015 0.146267
1.071375 0.455238 0.149962
1.125225 0.461621 0.153640
0.065832 0.328572 0.065832
0.081221 0.333937 0.068423
0.098070 0.339340 0.071059
0.116354 0.344784 0.073740
0.136052 0.350266 0.076466
0.157146 0.355789 0.079238
0.179616 0.361350 0.082054
0.203448 0.366951 0.084915
0.228625 0.372591 0.087821
0.255136 0.378270 0.090772
0.282966 0.383989 0.093766
0.312103 0.389746 0.096806
0.342537 0.395543 0.099889
0.374257 0.401379 0.103016
0.407253 0.407253 0.106187
0.441516 0.413167 0.109402
0.477035 0.419119 0.112661
0.513804 0.425110 0.115963
0.551813 0.431140 0.119308
0.591056 0.437209 0.122697
0.631524 0.443316 0.126129
0.673211 0.449462 0.129605
0.716109 0.455646 0.133123
0.760212 0.461869 0.136684
0.805514 0.468130 0.140288
0.852009 0.474430 0.143935
0.899701 0.480771 0.147623
0.949003 0.487237 0.151313
1.000180 0.493874 0.154982
1.053310 0.500682 0.158628
1.108471 0.507662 0.162248
1.165743 0.514816 0.165838
0.074734 0.373001 0.074734
0.090987 0.378684 0.077477
0.108686 0.384405 0.080265
0.127807 0.390165 0.083098
0.148330 0.395965 0.085976
0.170238 0.401803 0.088898
0.193514 0.407680 0.091864
0.218141 0.413597 0.094875
0.244107 0.419552 0.097931
0.271397 0.425546 0.101030
0.300000 0.431579 0.104173
0.329904 0.437650 0.107361
0.361098 0.443760 0.110591
0.393572 0.449909 0.113866
0.427316 0.456096 0.117184
0.462321 0.462321 0.120546
0.498579 0.468586 0.123950
0.536081 0.474888 0.127398
0.574819 0.481229 0.130889
0.614785 0.487608 0.134423
0.655973 0.494026 0.138000
0.698375 0.500482 0.141620
0.741985 0.506976 0.145282
0.786879 0.513530 0.148978
0.833477 0.520247 0.152661
0.881901 0.527142 0.156322
0.932224 0.534217 0.159958
0.984520 0.541472 0.163568
1.038867 0.548909 0.167147
1.095338 0.556528 0.170694
1.154012 0.564330 0.174206
1.214963 0.572315 0.177681
0.084148 0.419985 0.084148
0.101256 0.425982 0.087042
0.119797 0.432017 0.089980
0.139748 0.438091 0.092963
0.161090 0.444204 0.095990
0.183807 0.450356 0.099062
0.207882 0.456546 0.102177
0.233300 0.462774 0.105337
0.260049 0.469041 0.108540
0.288116 0.475346 0.111787
0.317487 0.481690 0.115077
0.348154 0.488072 0.118411
0.380104 0.494493 0.121789
0.413329 0.500951 0.125209
0.447818 0.507448 0.128673
0.483563 0.513983 0.132180
0.520556 0.520556 0.135730
0.558788 0.527167 0.139322
0.598252 0.533816 0.142958
0.638940 0.540503 0.146636
0.681040 0.547291 0.150330
0.724852 0.554264 0.154005
0.770443 0.561424 0.157658
0.817885 0.568771 0.161285
0.867247 0.576308 0.164883
0.918603 0.584033 0.168451
0.972023 0.591949 0.171986
1.027582 0.600056 0.175484
1.085353 0.608353 0.178945
1.145409 0.616841 0.182365
1.207824 0.625520 0.185742
1.272671 0.634390 0.189074
0.094068 0.469497 0.094068
0.112024 0.475805 0.097111
0.131399 0.482152 0.100199
0.152173 0.488536 0.103330
0.174328 0.494959 0.106506
0.197848 0.501421 0.109725
0.222718 0.507920 0.112988
0.248923 0.514458 0.116294
0.276450 0.521034 0.119644
0.305288 0.527648 0.123038
0.335425 0.534300 0.126474
0.366850 0.540990 0.129954
0.399554 0.547717 0.133476
0.433526 0.554483 0.137042
0.468757 0.561287 0.140650
0.505239 0.568128 0.144301
0.542980 0.575014 0.147992
0.582248 0.582054 0.151680
0.623192 0.589288 0.155347
0.665876 0.596718 0.158990
0.710364 0.604344 0.162607
0.756724 0.612167 0.166195
0.805024 0.620188 0.169751
0.855333 0.628407 0.173273
0.907721 0.636824 0.176757
0.962259 0.645439 0.180203
1.019017 0.654253 0.183608
1.078067 0.663265 0.186969
1.139478 0.672475 0.190284
1.203321 0.681882 0.193553
1.269664 0.691485 0.196772
1.338577 0.701283 0.199941
0.104489 0.521512 0.104489
0.123285 0.528128 0.107681
0.143488 0.534783 0.110916
0.165079 0.541476 0.114195
0.188041 0.548206 0.117517
0.212359 0.554975 0.120883
0.238018 0.561781 0.124292
0.265005 0.568625 0.127745
0.293308 0.575507 0.131240
0.322913 0.582427 0.134778
0.353812 0.589384 0.138359
0.385992 0.596379 0.141983
0.419445 0.603412 0.145650
0.454227 0.610517 0.149346
0.490580 0.617815 0.153027
0.528578 0.625317 0.156686
0.568277 0.633023 0.160320
0.609742 0.640934 0.163926
0.653032 0.649050 0.167502
0.698214 0.657372 0.171046
0.745353 0.665900 0.174554
0.794516 0.674634 0.178025
0.845770 0.683574 0.181456
0.899183 0.692720 0.184845
0.954823 0.702072 0.188190
1.012758 0.711628 0.191488
1.073056 0.721388 0.194739
1.135785 0.731350 0.197940
1.201009 0.741515 0.201089
1.268796 0.751880 0.204186
1.339208 0.762443 0.207230
1.412308 0.773204 0.210217
0.115408 0.576007 0.115408
0.135036 0.582930 0.118746
0.156060 0.589890 0.122128
0.178463 0.596887 0.125553
0.202227 0.603923 0.129021
0.227337 0.610996 0.132532
0.253782 0.618106 0.136086
0.281546 0.625254 0.139683
0.310619 0.632439 0.143323
0.340988 0.639662 0.147005
0.372775 0.647013 0.150698
0.406129 0.654576 0.154371
0.441099 0.662350 0.158021
0.477741 0.670338 0.161645
0.516111 0.678540 0.165241
0.556267 0.686955 0.168805
0.598270 0.695585 0.172336
0.642182 0.704429 0.175831
0.688066 0.713487 0.179288
0.735986 0.722758 0.182703
0.786008 0.732243 0.186076
0.838196 0.741941 0.189404
0.892616 0.751850 0.192685
0.949334 0.761969 0.195918
1.008414 0.772298 0.199100
1.069922 0.782835 0.202231
1.133920 0.793578 0.205308
1.200471 0.804526 0.208331
1.269637 0.815676 0.211299
1.341477 0.827026 0.214210
1.416050 0.838574 0.217063
1.493410 0.850317 0.219859
0.126819 0.632961 0.126819
0.147273 0.640187 0.130303
0.169113 0.647450 0.133830
0.192320 0.654750 0.137400
0.216881 0.662088 0.141012
0.242780 0.669462 0.144667
0.270018 0.676888 0.148361
0.298735 0.684500 0.152047
0.329002 0.692333 0.155712
0.360866 0.700388 0.159352
0.394375 0.708664 0.162967
0.429580 0.717163 0.166551
0.466537 0.725884 0.170104
0.505300 0.734828 0.173622
0.545928 0.743994 0.177103
0.588480 0.753382 0.180545
0.633018 0.762992 0.183945
0.679604 0.772822 0.187302
0.728298 0.782872 0.190613
0.779166 0.793141 0.193876
0.832269 0.803627 0.197091
0.887670 0.814329 0.200254
0.945432 0.825245 0.203365
1.005617 0.836373 0.206423
1.068286 0.847711 0.209426
1.133499 0.859258 0.212372
1.201313 0.871009 0.215262
1.271787 0.882963 0.218095
1.344975 0.895117 0.220869
1.420930 0.907467 0.223584
1.499702 0.920009 0.226241
1.581341 0.932742 0.228839
0.138719 0.692354 0.138719
0.159992 0.699880 0.142347
0.182641 0.707443 0.146018
0.206688 0.715099 0.149714
0.232239 0.722978 0.153393
0.259332 0.731088 0.157049
0.288006 0.739428 0.160681
0.318305 0.748000 0.164284
0.350275 0.756802 0.167857
0.383965 0.765836 0.171398
0.419427 0.775101 0.174902
0.456714 0.784596 0.178369
0.495883 0.794321 0.181796
0.536990 0.804276 0.185181
0.580095 0.814458 0.188521
0.625255 0.824868 0.191815
0.672533 0.835503 0.195060
0.721987 0.846362 0.198256
0.773679 0.857444 0.201401
0.827669 0.868746 0.204493
0.884017 0.880265 0.207530
0.942782 0.892001 0.210512
1.004023 0.903950 0.213438
1.067797 0.916109 0.216307
1.134159 0.928475 0.219118
1.203165 0.941045 0.221871
1.274866 0.953816 0.224565
1.349313 0.966783 0.227200
1.426553 0.979943 0.229777
1.506632 0.993292 0.232294
1.589591 1.006825 0.234753
1.675472 1.020537 0.237154
0.151167 0.754293 0.151065
0.173449 0.762446 0.154736
0.197273 0.770839 0.158383
0.222671 0.779472 0.162005
0.249680 0.788345 0.165598
0.278340 0.797459 0.169159
0.308695 0.806812 0.172687
0.340792 0.816404 0.176178
0.374681 0.826236 0.179630
0.410412 0.836305 0.183042
0.448039 0.846611 0.186410
0.487618 0.857152 0.189734
0.529204 0.867928 0.193010
0.572853 0.878937 0.196238
0.618626 0.890176 0.199415
0.666578 0.901644 0.202540
0.716769 0.913338 0.205612
0.769256 0.925257 0.208630
0.824097 0.937396 0.211592
0.881349 0.949754 0.214497
0.941067 0.962327 0.217345
1.003307 0.975112 0.220134
1.068122 0.988105 0.222866
1.135563 1.001303 0.225538
1.205679 1.014700 0.228152
1.278520 1.028294 0.230706
1.354128 1.042079 0.233202
1.432547 1.056051 0.235640
1.513817 1.070205 0.238020
1.597974 1.084535 0.240344
1.685052 1.099036 0.242612
1.775080 1.113702 0.244825
0.165042 0.820520 0.163326
0.188673 0.829702 0.166907
0.213944 0.839132 0.170456
0.240892 0.848812 0.173971
0.269558 0.858739 0.177448
0.299987 0.868913 0.180886
0.332224 0.879333 0.184282
0.366321 0.889998 0.187634
0.402327 0.900906 0.190940
0.440295 0.912055 0.194199
0.480280 0.923444 0.197409
0.522336 0.935070 0.200567
0.566518 0.946931 0.203673
0.612882 0.959025 0.206725
0.661485 0.971349 0.209722
0.712381 0.983899 0.212663
0.765627 0.996672 0.215547
0.821275 1.009666 0.218374
0.879381 1.022875 0.221142
0.939995 1.036297 0.223852
1.003170 1.049928 0.226503
1.068953 1.063762 0.229095
1.137392 1.077795 0.231628
1.208531 1.092022 0.234103
1.282415 1.106439 0.236519
1.359080 1.121039 0.238879
1.438566 1.135818 0.241182
1.520905 1.150768 0.243429
1.606128 1.165884 0.245623
1.694261 1.181160 0.247764
1.785329 1.196589 0.249854
1.879350 1.212163 0.251896
0.180750 0.891837 0.175250
0.205912 0.902106 0.178713
0.232814 0.912631 0.182136
0.261498 0.923409 0.185516
0.292009 0.934439 0.188851
0.324394 0.945721 0.192141
0.358701 0.957250 0.195382
0.394980 0.969026 0.198572
0.433283 0.981046 0.201712
0.473663 0.993308 0.204798
0.516173 1.005808 0.207830
0.560866 1.018543 0.210807
0.607796 1.031510 0.213727
0.657017 1.044706 0.216590
0.708581 1.058126 0.219396
0.762540 1.071767 0.222143
0.818945 1.085624 0.224831
0.877847 1.099694 0.227460
0.939292 1.113970 0.230030
1.003330 1.128448 0.232542
1.070002 1.143123 0.234995
1.139352 1.157990 0.237391
1.211420 1.173041 0.239729
1.286242 1.188273 0.242012
1.363853 1.203678 0.244240
1.444283 1.219249 0.246414
1.527562 1.234979 0.248536
1.613712 1.250863 0.250608
1.702753 1.266892 0.252632
1.794702 1.283058 0.254611
1.889571 1.299354 0.256546
1.987368 1.315772 0.258440
0.198440 0.968533 0.186744
0.225305 0.979936 0.190063
0.254014 0.991598 0.193334
0.284610 1.003515 0.196557
0.317140 1.015686 0.199729
0.351652 1.028107 0.202849
0.388195 1.040775 0.205916
0.426820 1.053688 0.208928
0.467577 1.066841 0.211884
0.510518 1.080233 0.214784
0.555695 1.093857 0.217625
0.603157 1.107710 0.220409
0.652957 1.121789 0.223135
0.705142 1.136087 0.225801
0.759764 1.150602 0.228409
0.816868 1.165326 0.230958
0.876501 1.180255 0.233448
0.938707 1.195383 0.235880
1.003527 1.210705 0.238255
1.071002 1.226213 0.240573
1.141169 1.241903 0.242835
1.214062 1.257766 0.245043
1.289714 1.273796 0.247198
1.368151 1.289986 0.249301
1.449399 1.306329 0.251356
1.533480 1.322815 0.253363
1.620410 1.339438 0.255325
1.710204 1.356189 0.257245
1.802869 1.373060 0.259125
1.898411 1.390041 0.260969
1.996830 1.407122 0.262779
2.098120 1.424296 0.264560
0.218240 1.050852 0.197726
0.246971 1.063424 0.200879
0.277648 1.076252 0.203980
0.310316 1.089335 0.207026
0.345021 1.102668 0.210018
0.381813 1.116247 0.212954
0.420739 1.130068 0.215832
0.461850 1.144128 0.218653
0.505193 1.158421 0.221415
0.550817 1.172943 0.224119
0.598772 1.187689 0.226764
0.649104 1.202654 0.229350
0.701861 1.217832 0.231878
0.757087 1.233217 0.234346
0.814825 1.248804 0.236757
0.875118 1.264586 0.239111
0.938005 1.280556 0.241408
1.003523 1.296708 0.243651
1.071708 1.313035 0.245839
1.142591 1.329528 0.247975
1.216201 1.346181 0.250060
1.292563 1.362986 0.252097
1.371701 1.379934 0.254087
1.453633 1.397017 0.256033
1.538372 1.414226 0.257938
1.625931 1.431552 0.259805
1.716313 1.448985 0.261636
1.809523 1.466516 0.263435
1.905556 1.484135 0.265206
2.004405 1.501831 0.266953
2.106055 1.519594 0.268679
2.210489 1.537412 0.270389
0.240252 1.138990 0.208130
0.270999 1.152749 0.211101
0.303790 1.166760 0.214015
0.338672 1.181019 0.216873
0.375690 1.195520 0.219672
0.414892 1.210259 0.222413
0.456324 1.225232 0.225096
0.500033 1.240431 0.227719
0.546065 1.255852 0.230284
0.594466 1.271490 0.232789
0.645279 1.287337 0.235237
0.698548 1.303387 0.237627
0.754313 1.319634 0.239960
0.812615 1.336071 0.242237
0.873491 1.352690 0.244459
0.936974 1.369485 0.246628
1.003099 1.386446 0.248745
1.071893 1.403566 0.250812
1.143385 1.420837 0.252832
1.217596 1.438250 0.254806
1.294546 1.455796 0.256736
1.374253 1.473465 0.258627
1.456726 1.491248 0.260480
