Xcode.app/Contents/Applications/RealityComposer.app/Contents/Frameworks/CoreRE.framework/Versions/A/Resources/lut3d_cc_v002.cube
TITLE "Generated by Foundry::LUT"
LUT_3D_SIZE 8
DOMAIN_MIN 0.000000 0.000000 0.000000
DOMAIN_MAX 0.903226 0.903226 0.903226
0.000000 0.000000 0.000000
0.008444 0.000707 0.001092
0.048197 0.002527 0.003126
0.128984 0.005324 0.005402
0.221943 0.009035 0.009035
0.334492 0.013617 0.013617
0.467669 0.019039 0.019039
0.620873 0.025276 0.025276
0.006581 0.032848 0.006581
0.040714 0.040714 0.010616
0.099830 0.049342 0.015509
0.181933 0.058719 0.021232
0.285815 0.068835 0.027762
0.410616 0.079679 0.035081
0.555674 0.091241 0.043173
0.720456 0.103513 0.052023
0.023533 0.117455 0.023533
0.072726 0.131174 0.030355
0.145581 0.145581 0.037959
0.240652 0.160669 0.046330
0.356966 0.176432 0.055454
0.493790 0.192866 0.065321
0.650544 0.209964 0.075919
0.826748 0.227722 0.087238
0.049588 0.247495 0.049588
0.112957 0.266606 0.058986
0.199057 0.286363 0.069122
0.306761 0.306761 0.079985
0.435254 0.327798 0.091566
0.583900 0.349469 0.103858
0.752183 0.371771 0.116851
0.939668 0.394701 0.130539
0.084148 0.419985 0.084148
0.161090 0.444204 0.095990
0.260049 0.469041 0.108540
0.380104 0.494493 0.121789
0.520556 0.520556 0.135730
0.681040 0.547291 0.150330
0.867247 0.576308 0.164883
1.085353 0.608353 0.178945
0.126819 0.632961 0.126819
0.216881 0.662088 0.141012
0.329002 0.692333 0.155712
0.466537 0.725884 0.170104
0.633018 0.762992 0.183945
0.832269 0.803627 0.197091
1.068286 0.847711 0.209426
1.344975 0.895117 0.220869
0.180750 0.891837 0.175250
0.292009 0.934439 0.188851
0.433283 0.981046 0.201712
0.607796 1.031510 0.213727
0.818945 1.085624 0.224831
1.070002 1.143123 0.234995
1.363853 1.203678 0.244240
1.702753 1.266892 0.252632
0.264552 1.233087 0.217906
0.409141 1.294315 0.228666
0.590078 1.359135 0.238489
0.810056 1.427118 0.247410
1.071352 1.497763 0.255518
1.375575 1.570494 0.262958
1.723426 1.644658 0.269934
2.114469 1.719523 0.276718
0.000035 0.000097 0.023246
0.011195 0.001209 0.027902
0.056848 0.003370 0.029161
0.135595 0.006484 0.032644
0.228046 0.010494 0.040489
0.341841 0.015364 0.049096
0.476225 0.021065 0.058454
0.630603 0.027573 0.068549
0.007852 0.035430 0.035430
0.043556 0.043556 0.043556
0.104084 0.052440 0.052440
0.187511 0.062069 0.062069
0.292658 0.072433 0.072433
0.418681 0.083522 0.083522
0.564926 0.095326 0.095326
0.730866 0.107837 0.107837
0.025759 0.122032 0.065784
0.076414 0.135985 0.076414
0.150624 0.150624 0.087766
0.246983 0.165942 0.099830
0.364534 0.181933 0.112599
0.502559 0.198593 0.126064
0.660482 0.215916 0.140220
0.837829 0.233897 0.155059
0.052693 0.253907 0.104430
0.117455 0.273237 0.117455
0.204867 0.293212 0.131174
0.313828 0.313828 0.145581
0.443535 0.335080 0.160669
0.593362 0.356966 0.176432
0.762799 0.379481 0.192866
0.951413 0.402622 0.209964
0.088086 0.428133 0.151033
0.166369 0.452562 0.166369
0.266606 0.477608 0.182379
0.387892 0.503267 0.199057
0.529538 0.529538 0.216398
0.692182 0.556800 0.234154
0.882760 0.586839 0.251138
1.106265 0.619919 0.267055
0.131558 0.642777 0.205337
0.222920 0.672105 0.222920
0.337209 0.703318 0.240495
0.477892 0.738076 0.257105
0.648376 0.776387 0.272596
0.852479 0.818203 0.286850
1.094138 0.863432 0.299791
1.377140 0.911924 0.311388
0.187635 0.905836 0.262921
0.301813 0.949810 0.277970
0.446706 0.997745 0.291749
0.625541 1.049474 0.304199
0.841653 1.104769 0.315303
1.098195 1.163345 0.325100
1.397881 1.224849 0.333680
1.742743 1.288864 0.341197
0.275005 1.253435 0.308425
0.423404 1.315925 0.319043
0.608674 1.381870 0.328380
0.833387 1.450816 0.336549
1.099648 1.522237 0.343727
1.408839 1.595531 0.350154
1.761382 1.670020 0.356143
2.156514 1.744941 0.362081
0.000143 0.000346 0.080324
0.014540 0.001831 0.078802
0.064966 0.004323 0.073326
0.140479 0.007746 0.079879
0.234224 0.012052 0.091454
0.349262 0.017206 0.103739
0.484851 0.023184 0.116726
0.640402 0.029962 0.130407
0.009224 0.038102 0.084040
0.046486 0.046486 0.095876
0.108419 0.055624 0.108419
0.193166 0.065504 0.121661
0.299576 0.076115 0.135595
0.426817 0.087447 0.150215
0.574248 0.099492 0.165515
0.741344 0.112241 0.181488
0.028076 0.126689 0.126689
0.080186 0.140875 0.140875
0.155745 0.155745 0.155745
0.253388 0.171293 0.171293
0.372176 0.187511 0.187511
0.511398 0.204397 0.204397
0.670489 0.221943 0.221943
0.848978 0.240146 0.240146
0.055884 0.260393 0.177160
0.122032 0.279942 0.193624
0.210753 0.300135 0.210753
0.320967 0.320967 0.228540
0.451887 0.342435 0.246983
0.602894 0.364534 0.266076
0.773482 0.387263 0.285815
0.963225 0.410616 0.306196
0.092106 0.436352 0.235225
0.171726 0.460991 0.253907
0.273237 0.486245 0.273237
0.395751 0.512112 0.293212
0.538589 0.538589 0.313828
0.704241 0.566653 0.334209
0.899359 0.597720 0.353033
1.128405 0.631837 0.370156
0.136376 0.652661 0.300695
0.229129 0.682303 0.321466
0.345913 0.714713 0.341300
0.489888 0.750678 0.359513
0.664506 0.790185 0.375989
0.873570 0.833173 0.390655
1.120944 0.879528 0.403491
1.410285 0.929085 0.414531
0.194851 0.920304 0.365759
0.312058 0.965638 0.381578
0.460672 1.014881 0.395573
0.643910 1.067848 0.407743
0.865032 1.124292 0.418144
1.127064 1.183904 0.426892
1.432535 1.246311 0.434169
1.783242 1.311071 0.440226
0.285838 1.274225 0.411756
0.438107 1.337934 0.421535
0.627739 1.404952 0.429719
0.857177 1.474800 0.436515
1.128340 1.546928 0.442203
1.442373 1.620707 0.447137
1.799408 1.695432 0.451751
2.198348 1.770313 0.456565
0.000358 0.000730 0.160617
0.018347 0.002569 0.144503
0.071742 0.005383 0.132732
0.145442 0.009110 0.145442
0.240478 0.013707 0.160524
0.356757 0.019143 0.176281
0.493548 0.025395 0.192708
0.650269 0.032441 0.209800
0.010696 0.040861 0.150892
0.049503 0.049503 0.166222
0.112834 0.058894 0.182226
0.198897 0.069023 0.198897
0.306566 0.079879 0.216232
0.435025 0.091454 0.234224
0.583639 0.103739 0.252870
0.751890 0.116726 0.272165
0.030484 0.131425 0.205175
0.084040 0.145844 0.222751
0.160945 0.160945 0.240984
0.259868 0.176720 0.259868
0.379889 0.193166 0.279400
0.520308 0.210276 0.299576
0.680564 0.228046 0.320390
0.860194 0.246471 0.341841
0.059161 0.266954 0.266954
0.126689 0.286722 0.286722
0.216714 0.307132 0.307132
0.328180 0.328180 0.328180
0.460310 0.349862 0.349862
0.612495 0.372176 0.372176
0.784233 0.395116 0.395116
0.975103 0.418681 0.418681
0.096209 0.444643 0.336055
0.177160 0.469491 0.357969
0.279942 0.494953 0.380513
0.403682 0.521028 0.403682
0.547893 0.547784 0.427390
0.717221 0.576854 0.449702
0.917039 0.608954 0.469726
1.151758 0.644105 0.487376
0.141272 0.662614 0.412332
0.235697 0.692902 0.435828
0.355122 0.726516 0.457314
0.502530 0.763688 0.476475
0.681407 0.804385 0.493244
0.895531 0.848531 0.507613
1.148681 0.895994 0.519632
1.444375 0.946590 0.529419
0.202407 0.935238 0.482901
0.322749 0.981916 0.498789
0.475180 1.032446 0.512287
0.662893 1.086624 0.523471
0.889064 1.144180 0.532481
1.156578 1.204786 0.539531
1.467770 1.268044 0.544907
1.824191 1.333490 0.548976
0.297052 1.295444 0.527017
0.453243 1.360324 0.535280
0.647259 1.428360 0.541679
0.881400 1.499047 0.546529
1.157389 1.571809 0.550227
1.476123 1.645993 0.553257
1.837435 1.720863 0.556189
2.239881 1.795603 0.559690
0.000725 0.001239 0.254882
0.022413 0.003418 0.219679
0.076311 0.006548 0.210588
0.150483 0.010574 0.228370
0.246806 0.015459 0.246806
0.364324 0.021174 0.265893
0.502315 0.027697 0.285626
0.660206 0.035009 0.306001
0.012266 0.043709 0.235053
0.052606 0.052606 0.253728
0.117329 0.062248 0.273052
0.204705 0.072625 0.293021
0.313631 0.083726 0.313631
0.443304 0.095543 0.334877
0.593099 0.108067 0.356757
0.762503 0.121290 0.379266
0.032982 0.136241 0.300502
0.087976 0.150892 0.321346
0.166222 0.166222 0.342825
0.266423 0.182226 0.364935
0.387675 0.198897 0.387675
0.529288 0.216232 0.411039
0.690708 0.234224 0.435025
0.871477 0.252870 0.459630
0.062522 0.273589 0.373199
0.131425 0.293575 0.396167
0.222751 0.314202 0.419760
0.335466 0.335466 0.443973
0.468804 0.357363 0.468804
0.622165 0.379889 0.494250
0.795052 0.403042 0.520308
0.987308 0.426862 0.546888
0.100392 0.453005 0.453005
0.182672 0.478061 0.478061
0.286722 0.503732 0.503732
0.411685 0.530013 0.530013
0.557923 0.557311 0.556290
0.731122 0.587404 0.579887
0.935793 0.620538 0.600430
1.176306 0.656723 0.617897
0.146248 0.672635 0.539800
0.242641 0.703909 0.565291
0.364845 0.738730 0.587775
0.515819 0.777104 0.607189
0.699073 0.818982 0.623537
0.918347 0.864271 0.636889
1.177323 0.912820 0.647385
1.479369 0.964429 0.655239
0.210310 0.950633 0.613536
0.333888 0.998637 0.628774
0.490226 1.050432 0.641059
0.682478 1.105789 0.650557
0.913727 1.164420 0.657512
1.186702 1.225973 0.662248
1.503538 1.290029 0.665171
1.865525 1.356099 0.666780
0.308646 1.317076 0.653387
0.468805 1.383078 0.659486
0.667217 1.452073 0.663505
0.906028 1.523533 0.665884
1.186754 1.596855 0.667155
1.510033 1.671358 0.667941
1.875390 1.746280 0.668968
2.281022 1.820775 0.671062
0.001282 0.001867 0.355423
0.026454 0.004376 0.303423
0.080080 0.007815 0.306937
0.155602 0.012136 0.327979
0.253210 0.017306 0.349656
0.371963 0.023298 0.371963
0.511152 0.030090 0.394897
0.670210 0.037666 0.418456
0.013934 0.046643 0.335852
0.055795 0.055795 0.357760
0.121904 0.065687 0.380298
0.210588 0.076311 0.403461
0.320768 0.087656 0.427248
0.451654 0.099713 0.451654
0.602629 0.112475 0.476678
0.773185 0.125934 0.502315
0.035569 0.141135 0.412109
0.091994 0.156017 0.436123
0.171577 0.171577 0.460756
0.273052 0.187808 0.486005
0.395532 0.204705 0.511866
0.538337 0.222263 0.538337
0.700921 0.240478 0.565416
0.882826 0.259344 0.593099
0.065968 0.280298 0.495414
0.136241 0.300502 0.521499
0.228864 0.321346 0.548194
0.342825 0.342825 0.575494
0.477369 0.364935 0.603398
0.631904 0.387675 0.631904
0.805938 0.411039 0.661008
1.000725 0.435315 0.690017
0.104656 0.461437 0.585653
0.188260 0.486702 0.613778
0.293575 0.512580 0.642503
0.419760 0.539068 0.671827
0.568711 0.567182 0.699851
0.745946 0.598304 0.724043
0.955612 0.632475 0.744386
1.202030 0.669689 0.760939
0.151371 0.682852 0.682536
0.249972 0.715324 0.709168
0.375088 0.751353 0.731946
0.529757 0.790924 0.750888
0.717498 0.833973 0.766083
0.942002 0.880387 0.777695
1.206842 0.930000 0.785969
1.515225 0.982589 0.791232
0.218567 0.966484 0.756886
0.345480 1.015797 0.770745
0.505808 1.068828 0.781100
0.702655 1.125331 0.788228
0.938997 1.184997 0.792487
1.217403 1.247449 0.794330
1.539788 1.312247 0.794299
1.907179 1.378876 0.793038
0.320617 1.339105 0.790100
0.484784 1.406177 0.793417
0.687594 1.476071 0.794504
0.931031 1.548234 0.793943
1.216393 1.622038 0.792411
1.544046 1.696772 0.790693
1.913198 1.771648 0.789679
2.321679 1.845791 0.790372
0.002054 0.002611 0.457357
0.030093 0.005442 0.400406
0.083932 0.009184 0.419535
0.160800 0.013797 0.443743
0.259688 0.019248 0.468568
0.379674 0.025514 0.494008
0.520060 0.032574 0.520060
0.680284 0.040411 0.546721
0.015699 0.049664 0.452772
0.059069 0.059069 0.477823
0.126559 0.069210 0.503487
0.216548 0.080080 0.529763
0.327979 0.091668 0.556646
0.460076 0.103965 0.584136
0.612228 0.116964 0.612228
0.783934 0.130658 0.640920
0.038245 0.146109 0.539548
0.096094 0.161221 0.566653
0.177009 0.177009 0.594364
0.279755 0.193466 0.622676
0.403461 0.210588 0.651588
0.547457 0.228370 0.681097
0.711201 0.246806 0.711201
0.894243 0.265893 0.741898
0.069498 0.287081 0.633206
0.141135 0.307503 0.662337
0.235053 0.328562 0.692064
0.350256 0.350256 0.722386
0.486005 0.372580 0.753299
0.641712 0.395532 0.784802
0.816892 0.419108 0.816892
1.015425 0.444057 0.847405
0.109002 0.469941 0.733649
0.193925 0.495414 0.764779
0.300502 0.521499 0.796497
0.428069 0.548277 0.828613
0.580262 0.577401 0.857409
0.761691 0.609555 0.881463
0.976487 0.644762 0.900856
1.228906 0.683000 0.915747
0.156765 0.693472 0.839721
0.257699 0.727150 0.866775
0.385859 0.764385 0.889107
0.544345 0.805145 0.906827
0.736675 0.849351 0.920124
0.966477 0.896871 0.929274
1.237208 0.947522 0.934641
1.551902 1.001061 0.936683
0.227184 0.982786 0.912202
0.357525 1.033384 0.923943
0.521918 1.087624 0.931659
0.723409 1.145238 0.935749
0.964852 1.205895 0.936705
1.248642 1.269196 0.935120
1.576469 1.334677 0.931688
1.949084 1.401798 0.927213
0.332964 1.361515 0.936434
0.501168 1.429602 0.936384
0.708370 1.500332 0.934036
0.956377 1.573125 0.930123
1.246259 1.647328 0.925488
1.578101 1.722203 0.921085
1.950782 1.796933 0.917988
2.361754 1.870613 0.917387
0.003038 0.003466 0.559982
0.032911 0.006612 0.521251
0.087865 0.010654 0.547939
0.166075 0.015554 0.575234
0.266240 0.021284 0.603133
0.387458 0.027821 0.631633
0.529037 0.035147 0.660731
0.690426 0.043245 0.690426
0.017559 0.052772 0.585392
0.062427 0.062427 0.613511
0.131293 0.072817 0.642230
0.222583 0.083932 0.671548
0.335263 0.095761 0.701461
0.468568 0.108297 0.731967
0.621896 0.121533 0.763065
0.794751 0.135461 0.794751
0.041009 0.151160 0.682445
0.100275 0.166502 0.712575
0.182518 0.182518 0.743298
0.286533 0.199201 0.774612
0.411462 0.216548 0.806514
0.556646 0.234552 0.839001
0.721550 0.253210 0.872073
0.905727 0.272516 0.905727
0.073111 0.293938 0.786239
0.146109 0.314577 0.818355
0.241316 0.335852 0.851057
0.357760 0.357760 0.884343
0.494711 0.380298 0.918209
0.651588 0.403461 0.952655
0.828168 0.427301 0.987497
1.031403 0.453089 1.018403
0.113427 0.478515 0.896690
0.199666 0.504196 0.930770
0.307503 0.530488 0.965428
0.436972 0.557822 0.999495
0.592582 0.587969 1.028298
0.778355 0.621159 1.051444
0.998404 0.657398 1.069116
1.256912 0.696653 1.081588
0.162441 0.704500 1.010719
0.265833 0.739385 1.037432
0.397163 0.777822 1.058545
0.559581 0.819763 1.074275
0.756594 0.865111 1.084926
0.991754 0.913717 1.090900
1.268389 0.965378 1.092697
1.589351 1.019831 1.090918
0.236167 0.999531 1.078750
0.370024 1.051391 1.087635
0.538552 1.106809 1.092015
0.744723 1.165496 1.092425
0.991262 1.227098 1.089507
1.280379 1.291195 1.084008
1.613526 1.357295 1.076789
1.991168 1.424838 1.068828
0.345681 1.384287 1.091704
0.517947 1.453331 1.087748
0.729524 1.524830 1.081512
0.982034 1.598179 1.073902
1.276305 1.672696 1.065936
1.612134 1.747618 1.058756
1.988061 1.822098 1.053630
2.401149 1.895201 1.051954
